X:123
T: HURRE HURRE HURRE SCHNURRE RAEDCHEN SCHNURRE
N: B0613
O: Europa, Mitteleuropa, Deutschland
R: Lied bei der Arbeit
M: 2/4
L: 1/16
K: G
 | d3cB2d2 | c4A4 |
B2G2F2G2 | AGFED2z2 |
G2D2A2D2 | B3ed4 |
g2fed2cB | AGFED4 |
E3AG2F2 | A4G2z2

@@@ Tune index: 2341
